64x64/apps/ding.svg

<svg xmlns="http://www.w3.org/2000/svg" width="64" height="64" version="1">
 <path style="opacity:0.2" d="M 8.1992188,12 C 5.8724188,12 4,13.866867 4,16.183594 V 53.816406 C 4,56.133134 5.8724188,58 8.1992188,58 H 27.800782 C 30.127582,58 32,56.133134 32,53.816406 32,56.133134 33.872418,58 36.199218,58 H 55.800782 C 58.127582,58 60,56.133134 60,53.816406 V 16.183594 C 60,13.866867 58.127582,12 55.800782,12 H 36.199218 C 33.872418,12 32,13.866867 32,16.183594 32,13.866867 30.127582,12 27.800782,12 Z"/>
 <rect style="fill:#ff881b" width="28" height="46" x="4" y="11" rx="4.2" ry="4.182"/>
 <rect style="fill:#ff881b" width="28" height="46" x="32" y="11" rx="4.2" ry="4.182"/>
 <path style="opacity:0.2" d="M 10.824219,8 C 9.2599834,8 8,9.244578 8,10.789062 V 51.210938 C 8,52.755422 9.2599834,54 10.824219,54 H 29.175782 C 30.740016,54 32,52.755422 32,51.210938 32,52.755422 33.259984,54 34.824218,54 H 53.175782 C 54.740016,54 56,52.755422 56,51.210938 V 10.789062 C 56,9.244578 54.740016,8 53.175782,8 H 34.824218 C 33.259984,8 32,9.244578 32,10.789062 32,9.244578 30.740016,8 29.175782,8 Z"/>
 <rect style="fill:#cccccc" width="24" height="46" x="32" y="7" rx="2.824" ry="2.788"/>
 <rect style="fill:#f4f4f7" width="24" height="46" x="8" y="7" rx="2.824" ry="2.788"/>
 <path style="fill:#17191e" d="m 16.818181,39 v -1.239004 q 0,-1.743788 0.318182,-2.982794 0.363637,-1.284896 1.181819,-2.43212 0.863636,-1.14723 2.318182,-2.386234 1.772726,-1.514342 2.727272,-2.523904 1,-1.009558 1.409092,-1.973228 0.40909,-0.963674 0.40909,-2.340348 0,-2.202675 -1.409092,-3.395791 -1.409088,-1.193118 -4.090908,-1.193118 -2.227273,0 -3.954545,0.59656 Q 14,19.680688 12.409091,20.460802 L 11,17.248564 q 1.818182,-0.96367 4,-1.606118 Q 17.227272,15 19.954544,15 24.272728,15 26.636362,17.156787 29,19.313575 29,23.030592 q 0,2.065012 -0.681818,3.533462 -0.636362,1.42256 -1.863636,2.661568 -1.181818,1.193116 -2.818182,2.56979 -1.500002,1.284894 -2.318184,2.248564 -0.772726,0.963674 -1.045452,1.927342 -0.27273,0.917784 -0.27273,2.248568 V 39 Z"/>
 <path style="fill:#17191e" d="m 15,43.977778 q 0,-1.644442 0.829269,-2.31111 Q 16.707316,41 18.024389,41 19.243902,41 20.121948,41.666668 21,42.333336 21,43.977778 21,45.577776 20.121948,46.28889 19.243902,47 18.024389,47 16.707316,47 15.829269,46.28889 15,45.577776 15,43.977778 Z"/>
 <rect style="fill:#17191e" width="18" height="3" x="35" y="17"/>
 <rect style="fill:#17191e" width="14" height="3" x="39" y="26"/>
 <rect style="fill:#17191e" width="9" height="3" x="35" y="35"/>
 <rect style="fill:#17191e" width="6" height="3" x="47" y="35"/>
 <path style="opacity:0.1" d="M 48.857142,44 C 47.274286,44 46,45.274286 46,46.857144 V 54 L 56,44 Z"/>
 <path style="fill:#f4f4f7" d="M 48.857142,43 C 47.274286,43 46,44.274286 46,45.857144 V 53 L 56,43 Z"/>
 <path style="opacity:0.2;fill:#f4f4f7" d="M 10.824219 7 C 9.2599832 7 8 8.2445777 8 9.7890625 L 8 10.789062 C 8 9.2445781 9.2599832 8 10.824219 8 L 29.175781 8 C 30.740015 8 32 9.2445781 32 10.789062 C 32 9.2445781 33.259985 8 34.824219 8 L 53.175781 8 C 54.740015 8 56 9.2445781 56 10.789062 L 56 9.7890625 C 56 8.2445777 54.740015 7 53.175781 7 L 34.824219 7 C 33.259985 7 32 8.2445777 32 9.7890625 C 32 8.2445777 30.740015 7 29.175781 7 L 10.824219 7 z"/>
</svg>

<svg xmlns="http://www.w3.org/2000/svg" width="64" height="64" version="1"><path style="opacity:.2" d="M8.2 12A4.183 4.183 0 0 0 4 16.184v37.632A4.183 4.183 0 0 0 8.2 58h19.6c2.328 0 4.2-1.867 4.2-4.184A4.183 4.183 0 0 0 36.2 58h19.6c2.328 0 4.2-1.867 4.2-4.184V16.184A4.183 4.183 0 0 0 55.8 12H36.2a4.183 4.183 0 0 0-4.2 4.184A4.183 4.183 0 0 0 27.8 12z"/><rect style="fill:#ff881b" width="28" height="46" x="4" y="11" rx="4.2" ry="4.182"/><rect style="fill:#ff881b" width="28" height="46" x="32" y="11" rx="4.2" ry="4.182"/><path style="opacity:.2" d="M10.824 8C9.26 8 8 9.245 8 10.79v40.42C8 52.756 9.26 54 10.824 54h18.352C30.74 54 32 52.755 32 51.21c0 1.545 1.26 2.79 2.824 2.79h18.352C54.74 54 56 52.755 56 51.21V10.79C56 9.244 54.74 8 53.176 8H34.824C33.26 8 32 9.245 32 10.79 32 9.244 30.74 8 29.176 8z"/><rect style="fill:#ccc" width="24" height="46" x="32" y="7" rx="2.824" ry="2.788"/><rect style="fill:#f4f4f7" width="24" height="46" x="8" y="7" rx="2.824" ry="2.788"/><path style="fill:#17191e" d="M16.818 39v-1.239q0-1.744.318-2.983.364-1.285 1.182-2.432.864-1.147 2.318-2.386 1.773-1.514 2.728-2.524 1-1.01 1.409-1.973.409-.964.409-2.34 0-2.203-1.41-3.396-1.408-1.194-4.09-1.194-2.227 0-3.955.597-1.727.55-3.318 1.33L11 17.25q1.818-.964 4-1.607Q17.227 15 19.955 15q4.318 0 6.681 2.157Q29 19.314 29 23.03q0 2.065-.682 3.533-.636 1.423-1.863 2.662-1.182 1.193-2.819 2.57-1.5 1.284-2.318 2.248-.773.964-1.045 1.927Q20 36.89 20 38.22V39zM15 43.978q0-1.645.83-2.311.877-.667 2.194-.667 1.22 0 2.098.667.878.666.878 2.31 0 1.6-.878 2.312-.878.711-2.098.711-1.317 0-2.195-.711Q15 45.578 15 43.978zM35 17h18v3H35zM39 26h14v3H39zM35 35h9v3h-9zM47 35h6v3h-6z"/><path style="opacity:.1" d="M48.857 44A2.85 2.85 0 0 0 46 46.857V54l10-10z"/><path style="fill:#f4f4f7" d="M48.857 43A2.85 2.85 0 0 0 46 45.857V53l10-10z"/><path style="opacity:.2;fill:#f4f4f7" d="M10.824 7C9.26 7 8 8.245 8 9.79v1C8 9.244 9.26 8 10.824 8h18.352C30.74 8 32 9.245 32 10.79 32 9.244 33.26 8 34.824 8h18.352C54.74 8 56 9.245 56 10.79v-1C56 8.244 54.74 7 53.176 7H34.824C33.26 7 32 8.245 32 9.79 32 8.244 30.74 7 29.176 7H10.824z"/></svg>
